icon/pk/four-leaves.svg

<svg viewBox="0 0 48 48" fill="none" xmlns="http://www.w3.org/2000/svg" height="1em" width="1em">
  <path d="M44 4.00006C44 4.00006 33.5899 2.20108 30 8.00006C27.3278 12.3167 31 17.0001 31 17.0001M44 4.00006L31 17.0001M44 4.00006C44 4.00006 45.799 14.4102 40 18.0001C35.6834 20.6723 31 17.0001 31 17.0001M31 17.0001L28 20.0001" stroke="black" stroke-width="4" stroke-linecap="round" stroke-linejoin="round"/>
  <path d="M31 31L28 28M44 44C44 44 33.5899 45.799 30 40C27.3278 35.6834 31 31 31 31L44 44ZM44 44C44 44 45.799 33.5899 40 30C35.6834 27.3278 31 31 31 31L44 44ZM44 44L31 31L44 44Z" stroke="black" stroke-width="4" stroke-linecap="round" stroke-linejoin="round"/>
  <path d="M17.2638 17.0001L20.2638 20.0001M4.26374 4.00006C4.26374 4.00006 14.6739 2.20108 18.2638 8.00006C20.936 12.3167 17.2638 17.0001 17.2638 17.0001L4.26374 4.00006ZM4.26374 4.00006C4.26374 4.00006 2.46475 14.4102 8.26374 18.0001C12.5804 20.6723 17.2638 17.0001 17.2638 17.0001L4.26374 4.00006ZM4.26374 4.00006L17.2638 17.0001L4.26374 4.00006Z" stroke="black" stroke-width="4" stroke-linecap="round" stroke-linejoin="round"/>
  <path d="M17.2638 31L20.2638 28M4.26374 44C4.26374 44 14.6739 45.799 18.2638 40C20.936 35.6834 17.2638 31 17.2638 31L4.26374 44ZM4.26374 44C4.26374 44 2.46475 33.5899 8.26374 30C12.5804 27.3278 17.2638 31 17.2638 31L4.26374 44ZM4.26374 44L17.2638 31L4.26374 44Z" stroke="black" stroke-width="4" stroke-linecap="round" stroke-linejoin="round"/>
</svg>

<svg width="48" height="48" fill="none" xmlns="http://www.w3.org/2000/svg"><path d="M44 4S33.59 2.201 30 8c-2.672 4.317 1 9 1 9M44 4 31 17M44 4s1.799 10.41-4 14c-4.317 2.672-9-1-9-1m0 0-3 3M31 31l-3-3m16 16s-10.41 1.799-14-4c-2.672-4.317 1-9 1-9l13 13Zm0 0s1.799-10.41-4-14c-4.317-2.672-9 1-9 1l13 13Zm0 0L31 31l13 13ZM17.264 17l3 3m-16-16s10.41-1.799 14 4c2.672 4.317-1 9-1 9l-13-13Zm0 0s-1.8 10.41 4 14c4.316 2.672 9-1 9-1l-13-13Zm0 0 13 13-13-13ZM17.264 31l3-3m-16 16s10.41 1.799 14-4c2.672-4.317-1-9-1-9l-13 13Zm0 0s-1.8-10.41 4-14c4.316-2.672 9 1 9 1l-13 13Zm0 0 13-13-13 13Z" stroke="#000" stroke-width="4" stroke-linecap="round" stroke-linejoin="round"/></svg>
